svgs/light/hourglass-end.svg

<svg xmlns="http://www.w3.org/2000/svg" viewBox="0 0 384 512"><!--! Font Awesome Pro 6.3.0 by @fontawesome - https://fontawesome.com License - https://fontawesome.com/license (Commercial License) Copyright 2023 Fonticons, Inc. --><path d="M285 422.7C288.5 427.6 288.1 433.1 286.2 439.3C283.5 444.6 277.1 448 272 448H112C106 448 100.5 444.6 97.77 439.3C95.03 433.1 95.5 427.6 98.98 422.7L178.1 310.7C181.1 306.5 186.8 304 192 304C197.2 304 202 306.5 205 310.7L285 422.7zM240.9 416L192 347.5L143.1 416H240.9zM0 16C0 7.164 7.164 0 16 0H368C376.8 0 384 7.164 384 16C384 24.84 376.8 32 368 32H352V76.67C352 108.3 341.6 139 322.4 164.1L252.1 256L322.4 347.9C341.6 372.1 352 403.7 352 435.3V480H368C376.8 480 384 487.2 384 496C384 504.8 376.8 512 368 512H16C7.164 512 0 504.8 0 496C0 487.2 7.164 480 16 480H32V435.3C32 403.7 42.41 372.1 61.61 347.9L131.9 256L61.61 164.1C42.41 139 32 108.3 32 76.67V32H16C7.164 32 0 24.84 0 16V16zM64 76.67C64 101.3 72.09 125.2 87.03 144.7L164.7 246.3C169.1 252 169.1 259.1 164.7 265.7L87.03 367.3C72.09 386.8 64 410.7 64 435.3V480H320V435.3C320 410.7 311.9 386.8 296.1 367.3L219.3 265.7C214.9 259.1 214.9 252 219.3 246.3L296.1 144.7C311.9 125.2 320 101.3 320 76.67V32H64V76.67z"/></svg>

<svg xmlns="http://www.w3.org/2000/svg" viewBox="0 0 384 512"><!--! Font Awesome Pro 6.4.0 by @fontawesome - https://fontawesome.com License - https://fontawesome.com/license (Commercial License) Copyright 2023 Fonticons, Inc. --><path d="M0 16C0 7.2 7.2 0 16 0H368c8.8 0 16 7.2 16 16s-7.2 16-16 16H352V76.7c0 31.6-10.4 62.4-29.6 87.5L252.1 256l70.2 91.9C341.6 373 352 403.7 352 435.3V480h16c8.8 0 16 7.2 16 16s-7.2 16-16 16H16c-8.8 0-16-7.2-16-16s7.2-16 16-16H32V435.3c0-31.6 10.4-62.4 29.6-87.5L131.9 256 61.6 164.1C42.4 139 32 108.3 32 76.7L32 32H16C7.2 32 0 24.8 0 16zM64 32l0 44.7c0 24.6 8.1 48.5 23 68l77.7 101.6c4.4 5.7 4.4 13.7 0 19.4L87 367.3c-14.9 19.5-23 43.4-23 68L64 480H320V435.3c0-24.6-8.1-48.5-23-68L219.3 265.7c-4.4-5.7-4.4-13.7 0-19.4L297 144.7c14.9-19.5 23-43.4 23-68V32H64zM205 310.7l80 112c3.5 4.9 3.9 11.3 1.2 16.6s-8.2 8.7-14.2 8.7H192 112c-6 0-11.5-3.4-14.2-8.7S95.5 427.6 99 422.7l80-112c3-4.2 7.9-6.7 13-6.7s10 2.5 13 6.7zM192 416h48.9L192 347.5 143.1 416H192z"/></svg>
